X:1
T:jota del molar
T:Jota de El Molar 
L:1/8
M:3/4
K:C
V:1 treble nm="Piano" snm="Pno."
V:1
"^1" z2 cc cc | c2 BB BB | B2 AA AA | B2 AG F2 | F2 BB BB | B2 AA AA | A2 GG GG | A2 GF E2 | %8
 E2 cc cc | d2 BB BB | c2 AA AA | B2 AG F2 | F2 BB BB | B2 AA AA | A2 GG GG | A2 GF E2- | E2 z4 | %17
"^2" z2 c2 B2 | c2 G2 E2 | E2 c2 B2 | c2 G2 F2 | D2 B2 A2 | B2 G2 F2 | D2 B2 A2 | B2 G2 E2 | %25
 E2 c2 B2 | c2 G2 E2 | E2 c2 B2 | c2 G2 F2 | D2 B2 A2 | B2 G2 F2 | D2 B2 A2 | B2 G2 E2- | E2 z4 | %34
"^3" z2 E2 F2 | G2 F2 G2- | GA B2 A2 | G4 F2- | F2 D2 E2 | F2 E2 F2- | FG A2 G2 | F4 E2- | %42
 E2 E2 F2 | G2 F2 G2- | GA B2 A2 | G4 F2- | F2 D2 E2 | F2 E2 F2- | FG A2 G2 | F4 E2- | E2 z4 | %51
"^4" z2 z2 c2 | e2 dc Bd | c2 z2 c2 | e2 dc Bc | d2 GA Bc | de dc Bc | d2 GA Bc | de dc Bd | %59
 c2 z2 c2 | e2 dc Bd | c2 z2 c2 | e2 dc Bc | d2 GA Bc | d2 dc B2 | BG A z AF | G2 GF E2- | E2 z4 | %68
"^5" z2 c2 c2 | AB AG E2 | E2 c2 c2 | AB AG F2- | F2 BF BF | AB AG F2- | F2 BF BF | AB AG E2 | %76
 E2 c2 c2 | AB AG E2 | E2 c2 c2 | AB AG F2- | F2 BF BF | AB AG F2- | F2 BF BF | AB AG E2- | %84
 E2 z4 |] %85

